coreui/free/cil-compass.svg

<svg viewBox="0 0 512 512" xmlns="http://www.w3.org/2000/svg"><g><path d="M209.68 304.96l119.05 59.42v0c11.85 5.91 26.27 1.1 32.19-10.76 3.37-6.76 3.36-14.71-.01-21.46l-59.5-118.95 -119.09-59.65v0c-11.86-5.94-26.28-1.15-32.21 10.71 -3.39 6.75-3.39 14.71-.01 21.47Zm67.88-67.9l44 87.97 -88.04-43.95 -44.06-88.15Z"/><path d="M256 496c132.548 0 240-107.452 240-240s-107.452-240-240-240C123.452 16 16 123.452 16 256c0 132.548 107.452 240 240 240ZM48.35 244C54.26 140.018 136.553 56.476 240 48.6V115h32V48.6C375.447 56.47 457.73 140.018 463.64 244h-63.68v32h63.06c-9.57 100.23-90.26 179.72-191.04 187.394v-60.4h-32v60.39C139.2 455.714 58.5 376.22 48.94 275.99h63.01v-32Z"/></g></svg>

<svg xmlns="http://www.w3.org/2000/svg" viewBox="0 0 512 512">
  <path fill="var(--ci-primary-color, currentColor)" d="M209.686,304.963l119.051,59.424a24,24,0,0,0,32.182-32.21l-59.5-118.948L182.333,153.584a24,24,0,0,0-32.216,32.189Zm67.88-67.892,44.006,87.975L233.535,281.1l-44.056-88.149Z" class="ci-primary"/>
  <path fill="var(--ci-primary-color, currentColor)" d="M256,496c132.548,0,240-107.452,240-240S388.548,16,256,16,16,123.452,16,256,123.452,496,256,496ZM48.353,244C54.269,140.018,136.553,56.476,240,48.606V115h32V48.606C375.447,56.476,457.731,140.018,463.647,244H399.971v32h63.068C453.474,376.238,372.78,455.727,272,463.394V403H240v60.394C139.22,455.727,58.526,376.238,48.961,276h63.01V244Z" class="ci-primary"/>
</svg>
